X:125
T: MAEDCHEN WILLST DU MIRS GESTEHEN
N: E0717
O: Europa, Mitteleuropa, Deutschland, Hessen, Wetzlar, Gellertshausen
R: Liebes - Lied, Leid, Klage
M: 3/4
L: 1/16
K: Bb
F3G | F4D2F2B3c | B4A4z4 |
c3cB2A2G2A2 | B4z4
F3G | F4D2F2B3c | B4A4z4 |
c3cB2A2G2A2 | B4z4
G2c2 | c4F2F2FBdc | B4z4

@@@ Tune index: 4438
